static/fa/svgs/regular/hand-point-right.svg

<svg xmlns="http://www.w3.org/2000/svg" viewBox="0 0 512 512"><!--! Font Awesome Free 6.1.1 by @fontawesome - https://fontawesome.com License - https://fontawesome.com/license/free (Icons: CC BY 4.0, Fonts: SIL OFL 1.1, Code: MIT License) Copyright 2022 Fonticons, Inc.--><path d="M320 408c0-6.428-.846-12.66-2.434-18.6C338.2 376.7 352 353.9 352 328c0-6.428-.846-12.66-2.434-18.6C370.2 296.7 384 273.9 384 248c0-2.705-.148-5.373-.441-8H440c39.7 0 72-32.3 72-72s-32.3-72-72-72H243.7c-16.2-19.49-40.5-32-67.7-32h-49.9C94.02 64 64.47 81.1 49 108.6l-31.35 55.9C6.104 185.1 0 208.4 0 231.8v107.9C0 417.1 64.6 480 144 480h104c39.7 0 72-32.3 72-72zm-40-104c13.23 0 24 10.78 24 24s-10.8 24-24 24h-47.9c-13.2 0-24.1-10.8-24.1-24s10.8-24 24-24h48zm32-80c13.23 0 24 10.78 24 24s-10.8 24-24 24h-48c-3.029 0-5.875-.701-8.545-1.73C260.7 259.9 264 248.4 264 236v-12h48zm128-80c13.23 0 24 10.78 24 24s-10.8 24-24 24H264v-40c0-2.686-.557-5.217-.793-7.84.293.04.493-.16.793-.16h176zM48 339.7V231.8c0-15.25 3.984-30.41 11.52-43.88l31.34-55.78C97.84 119.7 111.4 112 126.1 112H176c22.06 0 40 17.94 40 40v84c0 15.44-12.56 28-28 28s-28-12.6-28-28v-52c0-13.2-10.7-24-24-24s-24 10.8-24 24v52c0 33.23 21.58 61.25 51.36 71.54C161.3 314 160 320.9 160 328c0 5.041 1.166 9.836 2.178 14.66C137.4 354 120 378.1 120 408c0 7.684 1.557 14.94 3.836 21.87C80.56 420.9 48 383.9 48 339.7zM192 432c-13.23 0-24-10.78-24-24s10.8-24 24-24h56c13.23 0 24 10.78 24 24s-10.77 24-24 24h-56z"/></svg>

<svg xmlns="http://www.w3.org/2000/svg" viewBox="0 0 512 512"><!--! Font Awesome Free 6.1.1 by @fontawesome - https://fontawesome.com License - https://fontawesome.com/license/free (Icons: CC BY 4.0, Fonts: SIL OFL 1.1, Code: MIT License) Copyright 2022 Fonticons, Inc. --><path d="M320 408c0-6.428-.8457-12.66-2.434-18.6C338.2 376.7 352 353.9 352 328c0-6.428-.8457-12.66-2.434-18.6C370.2 296.7 384 273.9 384 248c0-2.705-.1484-5.373-.4414-8H440C479.7 240 512 207.7 512 168S479.7 96 440 96H243.7C227.5 76.51 203.2 64 176 64H126.1C94.02 64 64.47 81.1 49 108.6L17.65 164.5C6.104 185.1 0 208.4 0 231.8v107.9C0 417.1 64.6 480 144 480h104C287.7 480 320 447.7 320 408zM280 304c13.23 0 24 10.78 24 24S293.2 352 280 352H232.1C218.9 352 208 341.2 208 328S218.8 304 232 304H280zM312 224c13.23 0 24 10.78 24 24S325.2 272 312 272h-48c-3.029 0-5.875-.7012-8.545-1.73C260.7 259.9 264 248.4 264 236V224H312zM440 144c13.23 0 24 10.78 24 24S453.2 192 440 192h-176V152c0-2.686-.5566-5.217-.793-7.84C263.5 144.2 263.7 144 264 144H440zM48 339.7V231.8c0-15.25 3.984-30.41 11.52-43.88l31.34-55.78C97.84 119.7 111.4 112 126.1 112H176c22.06 0 40 17.94 40 40v84c0 15.44-12.56 28-28 28S160 251.4 160 236V184C160 170.8 149.3 160 136 160S112 170.8 112 184v52c0 33.23 21.58 61.25 51.36 71.54C161.3 314 160 320.9 160 328c0 5.041 1.166 9.836 2.178 14.66C137.4 354 120 378.1 120 408c0 7.684 1.557 14.94 3.836 21.87C80.56 420.9 48 383.9 48 339.7zM192 432c-13.23 0-24-10.78-24-24S178.8 384 192 384h56c13.23 0 24 10.78 24 24s-10.77 24-24 24H192z"/></svg>
